!!!OTL: DER HIMMEL UNSER HORT
!!!ARE: Europa, Mitteleuropa, Deutschland
!!!SCT: F0427
!!!YEM: Copyright 1995, estate of Helmut Schaffrath.
**kern
*ICvox
*Ivox
*M4/4
*k[f#]
*G:
{4b
=1
4.dd
8cc
4b
4a
=2
2g
4r}
{4g
=3
4.cc
8b
4cc
4dd
=4
2ee}
{[2ee
=5
4ee]
8.ee
16dd
4cc
4b
=6
4a
4d}
{[2dd
=7
4.dd]
8ee
4b
4a
=8
4g}
{4g
[2gg
=9
8gg]
8dd
8b
8g
4dd
4dd
=10
2g
4r}
==
!!!AGN: Vaterlands -, Heimat - Lied, nationalistisch, Krieg
!!!ONB: ESAC (Essen Associative Code) Database: FINK
!!!AMT: simple quadruple
!!!AIN: vox
!!!EED: Helmut Schaffrath
!!!EEV: 1.0
*-
